d1 $ slowspread density [1,0.75]
$ spread density [1,0.5,0.25]
$ degradeBy 0.5
$ sound (samples "feel*16" (irand 64))
# gain "0.8"
# unit "c"
# speed (choose[1,2])
# delay "0.1 0.9 0.5"
# delaytime "0.2"
# delayfeedback "0.5"

hush


d1 $ slowspread density [1,0.5]
$ n "e6 ~ [a5 e5] [a6 ~ d5]"
# sound "tutorial4"
# delay "0.1 0.6 0.9 0.4"
# sustain "0.3 0.6 0.4 1.5"

d2 $ stack [
sound "hh*8?" # pan "0.7",
sound "~ [cp ~ ~ mt]" # pan "0.3"
# delay "1.2?"
# speed "0.8",
sound "bd ~ ~ ~ ~ ~ ~ ~,bass:2"
]

d1 $ slowspread density [1,0.5]
$ n "{e6 ~ [a5 b5] [b6 ~ d5],gs6 ~ [d6 e6*7] ~}"
# sound "tutorial4"
# delay "0.5 0.6 0.9 0.4"
# sustain "1.3 1.6 0.4 3.5"
# pan sine1
# delaytime "0.6"
-- # crush "0.5 0.7 0.2 0.6"


bps (200/120)
d1 $ sound "can:1"
d1 $ sound "can:1" |+| vowel "a" |+| speed "0.5"
d1 $ sound "can:1 can" |+| crush "10"
d1 $ sound "hh*16" |+| pan sine1
d1 $ sound "drum [can cp, can bd can:5]" |+| pan sine1
t1 anticipate $ sound "{can can:2,can bd can:5}"
hush
d1 $ sound "{bd hh can,hh drum:2 mt mt}"
t1 anticipate $ sound "bd can*32 bd can*16"


d1 $ n "[e5 fs6 b5 a5]*2" # sound "tutorial4"
d1 $ n "[e5 fs6 b5 a5,a5 b5 d6]*2" # sound "tutorial4"
d2 $ sound "bd ~ ~ hh bd ~ cp hh" # gain "1.1"
bps (200/120)
hush

d1 silence

bps (160/120)
d1 $ n "[e5 fs6 b5 a5]*2" # sound "tutorial4"

d1 $ n "[e5 fs6 b5 a5,a5 b5 d6]*2" # sound "tutorial4"
d2 $ sound "bd ~ ~ hh bd ~ cp hh" # gain "1.1" # pan "0.3"
d3 $ sound "mt:3 mt:1 ~ mt" # pan "0.8"

hush

d1 $ sound "in ~ "
bps (60/120)

d1 $ n "c5 ~ c5 ~ g5 ~ g5 ~ a5 ~ a5 ~ g5 ~ ~ ~" # sound "tutorial4"
# sustain "0.5*14 2.0"

d1 $ n "f5 ~ f5 ~ e5 ~ e5 ~ d5 ~ d5 ~ c5 ~ ~ ~" # sound "tutorial4"
# sustain "0.5*14 2.0"

hush

--huskell
:t 'a'
:t True
:t "HELLO"
:l newfunc1
:l baby
removeNonUppercase rRdD
