
d1
$ whenmod 8 4 (const $ n "f5 a5 f5 c6" # sound "superpiano")
$ whenmod 16 4 (const $ n "[g5 d6 g5 b4]" # sound "superpiano")
$ n "c5 g5 c5 e5" # sound "superpiano"
# speed (choose[-1, 0.5, 0.8, 0.7])
